X: 6918
T: Cheesehead, The
R: polka
M: 2/4
K: Cmajor
|:e2 g2|c c2 e|dc B2|de fd|
e2 g2|c c2 f|ec dB|1 c2 cd:|2 c2 cB/c/||
|:dg g/a/g/f/|ec cB|dB BA/B/|ce g2|
dg g/a/g/f/|ec cf|ec dB|1 c2 cB/c/:|2 c2 cd||

